static/images/logos/payment/diners.svg

<?xml version="1.0" encoding="UTF-8" standalone="no"?>
<svg width="750px" height="471px" viewBox="0 0 750 471" version="1.1" xmlns="http://www.w3.org/2000/svg" xmlns:xlink="http://www.w3.org/1999/xlink" xmlns:sketch="http://www.bohemiancoding.com/sketch/ns">
    <!-- Generator: Sketch 3.3.1 (12005) - http://www.bohemiancoding.com/sketch -->
    <title>diners</title>
    <desc>Created with Sketch.</desc>
    <defs></defs>
    <g id="Page-1" stroke="none" stroke-width="1" fill="none" fill-rule="evenodd" sketch:type="MSPage">
        <g id="diners" sketch:type="MSLayerGroup" fill="#393939">
            <path d="M0,40.0047706 C0,17.9107459 17.9143492,0 39.9919369,0 L710.008063,0 C732.095,0 750,17.9064659 750,40.0047706 L750,430.995229 C750,453.089254 732.085651,471 710.008063,471 L39.9919369,471 C17.905,471 0,453.093534 0,430.995229 L0,40.0047706 Z M584.933911,236.947339 C584.933911,137.53154 501.952976,68.8140806 411.038924,68.8471464 L332.79674,68.8471464 C240.793699,68.8140806 165.066089,137.552041 165.066089,236.947339 C165.066089,327.877778 240.793699,402.587432 332.79674,402.150963 L411.038924,402.150963 C501.952976,402.586771 584.933911,327.857939 584.933911,236.947339 Z M333.166996,82.6223815 C249.097073,82.6488342 180.972583,150.929824 180.952783,235.202123 C180.972583,319.459873 249.096413,387.73425 333.166996,387.760703 C417.256719,387.73425 485.395069,319.459873 485.406949,235.202123 C485.394409,150.929824 417.256719,82.6488342 333.166996,82.6223815 Z M236.682602,235.202123 C236.761801,194.021908 262.428934,158.90597 298.622956,144.951518 L298.622956,325.431566 C262.428934,311.48505 236.761141,276.388291 236.682602,235.202123 Z M367.697836,325.471245 L367.697836,144.945566 C403.905059,158.866291 429.611791,194.002068 429.67779,235.202123 C429.611791,276.414743 403.905059,311.524068 367.697836,325.471245 Z" id="Rectangle-1" sketch:type="MSShapeGroup"></path>
        </g>
    </g>
</svg>

<?xml version="1.0" encoding="utf-8"?>
<!-- Generator: Adobe Illustrator 20.0.0, SVG Export Plug-In . SVG Version: 6.00 Build 0)  -->
<svg version="1.1" id="Layer_1" xmlns:sketch="http://www.bohemiancoding.com/sketch/ns"
	 xmlns="http://www.w3.org/2000/svg" xmlns:xlink="http://www.w3.org/1999/xlink" x="0px" y="0px" viewBox="0 0 750 471"
	 style="enable-background:new 0 0 750 471;" xml:space="preserve">
<style type="text/css">
	.st0{fill:#FFFFFF;}
</style>
<title>diners</title>
<desc>Created with Sketch.</desc>
<g id="Page-1" sketch:type="MSPage">
	<g id="diners" sketch:type="MSLayerGroup">
		<path id="Rectangle-1" sketch:type="MSShapeGroup" class="st0" d="M0,40C0,17.9,17.9,0,40,0h670c22.1,0,40,17.9,40,40v391
			c0,22.1-17.9,40-40,40H40c-22.1,0-40-17.9-40-40V40z M584.9,236.9c0-99.4-83-168.1-173.9-168.1h-78.2
			c-92,0-167.7,68.7-167.7,168.1c0,90.9,75.7,165.6,167.7,165.2H411C502,402.6,584.9,327.9,584.9,236.9z M333.2,82.6
			c-84.1,0-152.2,68.3-152.2,152.6c0,84.3,68.1,152.5,152.2,152.6c84.1,0,152.2-68.3,152.2-152.6C485.4,150.9,417.3,82.6,333.2,82.6
			z M236.7,235.2c0.1-41.2,25.7-76.3,61.9-90.3v180.5C262.4,311.5,236.8,276.4,236.7,235.2z M367.7,325.5V144.9
			c36.2,13.9,61.9,49.1,62,90.3C429.6,276.4,403.9,311.5,367.7,325.5z"/>
	</g>
</g>
</svg>
